X: 1
T:New Policeman's -- Reel
M:C|
L:1/8
R:reel
B:Ryan's Mammoth Collection
N:244
N:Transcribed by Ray Davies ray:davies99.freeserve.co.uk
K:G
uD2|:\
G2(BG) F2(AG) | FGAB c2(Bc) | .d(fge) d2(eg) | fdcA BGAF |
G2(BG) F2(AG) | FGAB c2(Bc) | dgge d2(de) | fdcA BGG2 :|
|:{a}vgfge d2(ef) | {a}gfga bgaf | (3.g.g.g (gf) d2(de) | fdcA (BG)G2 |
{a}gfge d2(ef) | {a}gfga bgaf | {a}gfge d2(de) | fdcA BGG2 :|
